!!!!SEGMENT: pl-wtm--670-sp-3678--001-002_reinecke-carl--piosenki-dla-mlodocianego-wieku-piotr-maszynski-2-dla-malej-zosi.krn
!!!cenid: 18xx:4754
!!!COM: Reinecke, Carl
!!!COM-rismID: pe42007
!!!CDT: 1824/06/23-1910/03/10
!!!CNT: German
!!!GTL: Piosenki dla młodocianego wieku (Piotr Maszyński)
!!!OTL: 2. Dla małej Zosi
!!!OMV: 002
!!!PDT: 1871
!!!AGN: Secular; Song; Children
!!!YEC: Copyright 2022 Narodowy Instytut Fryderyka Chopina (https://polishscores.org)
!!!YEM: License CC-BY-4.0 (https://creativecommons.org/licenses/by/4.0)
!!!SMS-siglum: PL-Wtm
!!!SMS-shelfmark: 670 śp 3678
!!!SMS-variant:
!!!SMS-altvar:
!!!SMS-shelfwork: 001-002 G
!!!NIFC-rismSourceID: 1001185478
!!!NIFC-rismChildID: 1001185478
!!!NIFC-islandoraID: pl-wtm:57754
!!!URL-pdf-islandora: https://repozytorium.nifc.pl/islandora/object/pl-wtm%3A57754/datastream/PDF/view
!!!URL-scan: https://polish.musicsources.pl/pl/lokalizacje/galeria/druki-muzyczne/19483/2 @EN{Scan on Polish Music Sources Website} @PL{Skany w portalu Dziedzictwo Muzyki Polskiej w otwartym dostępie}
!!!IIIF:
!!!ONB-nifc:
!!!AIN: 1 canto 1 piano
!!!key: d
**kern	**kern	**dynam	**kern	**text
*part2	*part2	*part2	*part1	*part1
*staff3	*staff2	*staff2/3	*staff1	*staff1
*IGacmp	*IGacmp	*	*	*
*ICklav	*ICklav	*	*ICvox	*
*Ipiano	*Ipiano	*	*Icanto	*
*I"Fortepian.	*I"Fortepian.	*	*I"Śpiew.	*
*I'	*I'	*	*I'	*
*clefF4	*clefG2	*	*clefG2	*
*k[f#c#]	*k[f#c#]	*	*k[f#c#]	*
*d:	*d:	*	*d:	*
*M2/4	*M2/4	*	*M2/4	*
!!LO:TX:a:B:t=Allegretto vivace.
8A'\	8a'/	p	8a/	Ta
=1	=1	=1	=1	=1
8D'\L	8aL 8f# 8d'/	.	8a/	na-
8A'\	8a'/	.	8a/	-sza
8D#X'\	8a 8f# 8B#X'/	.	8a/	ma-
8A'\J	8a'/J	.	8a/	-ła
=2	=2	=2	=2	=2
8E'\L	8aL 8g 8c#'/	.	4a/	Zo-
8A'\	8a'/	.	.	.
8D#X'\	8a 8f# 8B#X'/	.	8a/	-sia,
8A'\J	8a'/J	.	8a/	ach,
=3	=3	=3	=3	=3
8E'\L	8aL 8g 8c#'/	.	8a/	cóż
8A'\	8a'/	.	8a/	to
8E#X'\	8cc# 8g#X 8d'/	.	8cc#\	za
8A'\J	8b'/J	.	8b\	po-
!!LO:LB:g=original
=4	=4	=4	=4	=4
8F#'\L	4a 4d/	.	4a/	-cie-
8A'\	.	.	.	.
8F#'\J	8a'/L	.	8a/	-cha,
8r	8a'/J	.	8r	.
=5	=5	=5	=5	=5
8D'\L	8aL 8f# 8d'/:	.	2r	.
8A'\	8a'/	.	.	.
8D#X'\	8a 8f# 8B#X'/:	.	.	.
8A'\J	8a'/J	.	.	.
=6	=6	=6	=6	=6
8E'\L	8a:L 8g: 8c#:/	.	4r	.
8A'\	8a/	.	.	.
8D#X'\	8a: 8f#: 8B#X:/	.	8r	.
8A'\J	8a/J	.	8a/	ach,
=7	=7	=7	=7	=7
8E'\L	8a:L 8g: 8c#:/	.	8a/	cóż
8A'\	8a/	.	8a/	to
8E#X'\	8cc#: 8g#X: 8d:/	.	8cc#\	za
8A'\J	8b/J	.	8b\	po-
=8	=8	=8	=8	=8
!	!	!	!LO:TX:t=P:problem:nieczytelne źrodło	!
8F#'\L	4a 4d/	.	4a/	-cie-
8A'\	.	.	.	.
8F#'\J	8aL 8d/'	.	8a/	-cha,
8r	8a'/J	.	8a/	dość
!!LO:PB:g=original
=9	=9	=9	=9	=9
8F#'\L	8ddL 8a 8d'/	.	8dd\	spoj-
8A'\	8dd'/	.	8dd\	-rzeć
8F#'\	8dd 8d'/	.	8dd\	tyl-
8A'\J	8a'/J	.	8a/	-ko
=10	=10	=10	=10	=10
8G'\L	4b 4d/	.	4b\	na
8B'\	.	.	.	.
8G'\J	8bL 8d'/	.	8b\	nią
8r	8b'/J	.	8b\	już
=11	=11	=11	=11	=11
8G#X'\L	8eeL 8b 8e'/	.	8ee\	za-
8B'\	8b'/	.	8b\	-raz
8G#'\	8ee 8e'/	.	8ee\	się
8B'\J	8b'/J	.	8b\	uś-
=12	=12	=12	=12	=12
8A'\L	4cc# 4e/	.	4cc#\	-mie-
8c#'\	.	.	.	.
8A'\J	8cc#L 8e'/	.	8cc#\	-cha
8r	8cc#'/J	.	8cc#\	i
=13	=13	=13	=13	=13
8F#'\L	8ddL 8a 8d'/	.	8dd\	w rącz-
8A'\	8dd'/	.	8dd\	-ki
8F#'\	8dd 8d'/	.	8dd\	klasz-
8A'\J	8a'/J	.	8a/	-cząc
!!LO:LB:g=original
=14	=14	=14	=14	=14
8G'\L	4b 4d/	.	4b\	o-
8B'\	.	.	.	.
8G'\J	8bL 8d/	.	8b\	-bie
8r	8b'/J	.	8b\	do-
=15	=15	=15	=15	=15
8G#X'\L	8eeL 8b 8e/	.	8ee\	-pó-
8B'\	8b'/	.	8b\	-ty
8G#'\	8ee 8b 8e/	.	8ee\	ła-
8B'\J	8b'/J	.	8b\	-dnie
=16	=16	=16	=16	=16
8A'\L	4cc# 4e/	.	4cc#\	pro-
8c#'\	.	.	.	.
8A'\J	8cc#L 8e'\	.	8cc#\	-si,
.	.	<	.	.
8r	8aaJ 8a'\	.	8a/	aż
=17	=17	=17	=17	=17
8G'\L	8aaL 8b'\	.	8b\	dzie-
8A'\	8aa 8cc#'\	.	8cc#\	-ci,
8G'\	8aa 8dd'\	.	8dd\	ro-
8A'\J	8bbJ 8ee'\	[[	8ee\	-zu-
=18	=18	=18	=18	=18
8F#'\L	8aaL 8ff#'\	.	8ff#\	-mie-
8A'\	8aa 8ee'\	.	8ee\	-jąc
8F#'\	8aa 8dd'\	>	8dd\	to,
8G'\J	8ggJ 8b'\	.	8b\	za
!!LO:LB:g=original
=19	=19	=19	=19	=19
8A'\L	8ff#L 8a'\	.	8a/	śpie-
8A'\	8ee 8g'\	.	8g/	-wać
8A'\	8dd 8f#'\	.	8f#/	mu-
8A'\J	8cc#J 8e'\	]]	8e/	-szą
=20	=20	=20	=20	=20
8D'\L	4dd 4f#/	.	4f#/	Zo-
8A'\	.	.	.	.
8d'\J	8ddL 8f#'\	.	8f#/	-si,
8r	8aaJ 8a'\	<	8r	.
=21	=21	=21	=21	=21
8G'\L	8aaL 8b'\	.	2r	.
8A'\	8aa 8cc#'\	.	.	.
8G'\	8aa 8dd'\	.	.	.
8A'\J	8aaJ 8ee'\	[[	.	.
=22	=22	=22	=22	=22
8F#'\L	8aaL 8ff#'\	.	4r	.
8A'\	8aa 8ee'\	.	.	.
8F#'\	8aa 8dd'\	>	8r	.
8G'\J	8ggJ 8b'\	.	8b/	za-
=23	=23	=23	=23	=23
8A'\L	8ff#L 8a'/	.	8a/	-śpie-
8A'\	8ee 8g'/	.	8g/	-wać
8A'\	8dd 8f#'/	.	8f#/	mu-
8A'\J	8cc#J 8e'/	]]	8e/	-szą
!!LO:LB:g=original
=24	=24	=24	=24	=24
8D'\L	4dd 4f#/	.	4d/	Zo-
8A'\	.	.	.	.
8d'\J	8ddL 8f#'/	.	8d/	-si.
8r	8a'/J	.	8r	.
=25	=25	=25	=25	=25
8D'\L	8aL 8f# 8d'/:	.	2r	.
8A'\	8a'/	.	.	.
8D#X'\	8a 8f# 8B#X'/:	.	.	.
8A'\J	8a'/J	.	.	.
=26	=26	=26	=26	=26
8E'\L	8aL 8g 8c#'/:	.	2r	.
8A'\	8a'/	.	.	.
8D#X'\	8a 8f# 8B#X'/:	.	.	.
8A'\J	8a'/J	.	.	.
=27	=27	=27	=27	=27
8E'\L	8aL 8g 8c#'/	.	2r	.
8A'\	8a'/	.	.	.
8E#X'\	8cc# 8g#X 8d'/	.	.	.
8A'\J	8b'/J	.	.	.
=28	=28	=28	=28	=28
8F#'\L	4a 4d/	.	4r	.
8A'\	.	.	.	.
8F#'\J	8a'/L	.	8r	.
8r	8a'/J	.	8a/	Pio-
!!LO:PB:g=original
=29	=29	=29	=29	=29
8D'\L	8a:L 8f#: 8d':/	.	8a/	-sen-
8A'\	8a'/	.	8a/	-kę
8D#X'\	8a: 8f#: 8B#X':/	.	8a/	co-
8A'\J	8a'/J	.	8a/	-raz
=30	=30	=30	=30	=30
8E'\L	8a:L 8g: 8c#':/	.	8a/	in-
8A'\	8a'/	.	8a/	-ną
8D#X'\	8a: 8f#: 8B#X':/	.	8a/	zaw-
8A'\J	8a'/J	.	8a/	-sze,
=31	=31	=31	=31	=31
8E'\L	8a:L 8g: 8c#':/	.	8a/	ro-
8A'\	8a'/	.	8a/	-zpo-
8E#X'\	8cc#: 8g#X: 8d':/	.	8cc#\	-czy-
8A'\J	8b'/J	.	8b\	-na
=32	=32	=32	=32	=32
8F#'\L	4a 4d/	.	4a/	Ma-
8A'\	.	.	.	.
8F#'\J	8aL 8d'/	.	8a/	-nia,
8r	8a'/J	.	8a/	a
=33	=33	=33	=33	=33
8F#'\L	8ddL 8a 8d'/	.	8dd\	Ta-
8A'\	8dd'/	.	8dd\	-dzio
8F#'\	8dd 8d'/	.	8dd\	so-
8A'\J	8a'/J	.	8a/	-bie
!!LO:LB:g=original
=34	=34	=34	=34	=34
8G'\L	4b 4d/	.	4b\	ro-
8B'\	.	.	.	.
8G'\J	8bL 8d'/	.	8b\	-bi
8r	8b'/J	.	8b\	gi-
=35	=35	=35	=35	=35
8G#X'\L	8eeL 8b 8e'/	.	8ee\	-ta-
8B'\	8b'/	.	8b\	-rę
8G#'\	8ee 8e'/	.	8ee\	do
8B'\J	8b'/J	.	8b\	brzdą-
=36	=36	=36	=36	=36
8A'\L	4cc# 4e/	.	4cc#\	-ka-
8c#'\	.	.	.	.
8A'\J	8cc#L 8e'/	.	8cc#\	-nia,
8r	8cc#'/J	.	8cc#\	bo
=37	=37	=37	=37	=37
8F#'\L	8ddL 8a 8d'/	.	8dd\	ja-
8A'\	8dd'/	.	8dd\	-kże-
8F#'\	8dd 8d'/	.	8dd\	-by
8A'\J	8a'/J	.	8a/	bez
=38	=38	=38	=38	=38
8G'\L	4b 4d/	.	4b\	nie-
8B'\	.	.	.	.
8G'\J	8bL 8d'/	.	8b\	-go
8r	8b'/J	.	8b\	w tym
!!LO:LB:g=original
=39	=39	=39	=39	=39
8G#X'\L	8eeL 8b 8e'/	.	8ee\	ra-
8B'\	8b'/	.	8b\	-zie
8G#'\	8ee 8e'/	.	8ee\	się
8B'\J	8b'/J	.	8b\	o-
=40	=40	=40	=40	=40
8A'\L	4cc# 4e/	.	4cc#\	-by-
8c#'\	.	.	.	.
8A'\J	8cc#L 8e'\	.	8cc#\	-ło,
.	.	<	.	.
8r	8aaJ 8a'\	.	8a/	i
=41	=41	=41	=41	=41
8G'\L	8aaL 8b'\	.	8b\	ot,
8A'\	8aa 8cc#'\	.	8cc#\	na
8G'\	8aa 8dd'\	.	8dd\	po-
8A'\J	8aaJ 8ee'\	[[	8ee\	-cze-
=42	=42	=42	=42	=42
8F#'\L	8aaL 8ff#'\	.	8ff#\	-ka-
8A'\	8aa 8ee'\	.	8ee\	-niu
.	.	>	.	.
8F#'\	8aa 8dd'\	.	8dd\	jest
8G'\J	8ggJ 8b'\	.	8b\	mu-
=43	=43	=43	=43	=43
8A'\L	8ff#L 8a'\	.	8a/	-zy-
8A'\	8ee 8g'\	.	8g/	-ka,
8A'\	8dd 8f#'\	.	8f#/	że
8A'\J	8cc#J 8e'\	]]	8e/	aż
!!LO:LB:g=original
=44	=44	=44	=44	=44
8D'\L	4dd 4f#/	.	4f#/	mi-
8A'\	.	.	.	.
8d'\J	8ddL 8f#'\	.	8f#/	-ło,
.	.	<	.	.
8r	8aaJ 8a'\	.	8a/	a
=45	=45	=45	=45	=45
8G'\L	8aaL 8b'\	.	8b\	niech-
8A'\	8aa 8cc#'\	.	8cc#\	-by
8G'\	8aa 8dd'\	.	8dd\	się
8A'\J	8aaJ 8ee'\	[[	8ee\	i
=46	=46	=46	=46	=46
8F#'\L	8aaL 8ff#'\	.	8ff#\	w no-
8A'\	8aa 8ee'\	.	8ee\	-cy
8F#'\	8aa 8dd'\	>	8dd\	jesz-
8G'\J	8ggJ 8b'\	.	8b\	-cze
=47	=47	=47	=47	=47
8A'\L	8ff#L 8a'/	.	8a/	Zo-
8A'\	8ee 8g'/	.	8g/	-si
8A'\	8dd 8f#'/	.	8f#/	o
8A'\J	8cc#J 8e'/	]]	8e/	niej
=48	=48	=48	=48	=48
8D'\L	4dd 4f#/	.	4d/	śni-
8A'\	.	.	.	.
8d'\J	8ddL 8f#'/	.	8d/	-ło.
8r	8a'/J	.	8r	.
!!LO:LB:g=original
=49	=49	=49	=49	=49
8D'\L	8a:L 8f#: 8d':/	.	2ryy	.
8A'\	8a'/	.	.	.
8D#X'\	8a: 8f#: 8B#X':/	.	.	.
8A'\J	8a'/J	.	.	.
=50	=50	=50	=50	=50
8E'\L	8a:L 8g: 8c#':/	.	2ryy	.
8A'\	8a'/	.	.	.
8D#X'\	8a: 8f#: 8B#X':/	.	.	.
8A'\J	8a'/J	.	.	.
=51	=51	=51	=51	=51
8E'\L	8aL 8g 8c#/	.	2ryy	.
8A'\	8a'/	.	.	.
8E#X'\	8cc# 8g#X 8d/	.	.	.
8A'\J	8b'/J	.	.	.
=52	=52	=52	=52	=52
8F#'\L	4a 4d/	.	2ryy	.
8A'\	.	.	.	.
8F#'\	8a\L	.	.	.
8A'\J	8aaJ 8a'\	.	.	.
=53	=53	=53	=53	=53
8G'\L	8aaL 8b'\	.	2ryy	.
8A'\	8aa 8cc#'\	.	.	.
8G'\	8aa 8dd'\	.	.	.
8A'\J	8aaJ 8ee'\	.	.	.
=54	=54	=54	=54	=54
8F#'\L	8aaL 8ff#'\	>	2ryy	.
8A'\	8aa 8ee'\	.	.	.
8F#'\	8aa 8dd'\	.	.	.
8G'\J	8ggJ 8b'\	.	.	.
=55	=55	=55	=55	=55
8A'\L	8ff#L 8a'\	.	2ryy	.
8A'\	8ee 8g'\	.	.	.
8A'\	8dd 8f#'\	.	.	.
8A'\J	8cc#J 8e'\	.	.	.
=56	=56	=56	=56	=56
4A 4D\	4dd 4f#/	.	2ryy	.
4A 4D\	4dd 4f#/	]]	.	.
==	==	==	==	==
*-	*-	*-	*-	*-
!!!system-decoration: s1{(s2,s3)}
!!!RDF**kern: > = above
!!!RDF**kern: < = below
!!!RDF**kern: N = linked
!!!ENC: Andrzej Gręziak
!!!EED: Katarzyna Serwa
!!!END: 2025-03-25
!!!EEV: 2025-03-27
